!!!COM: Schubert, Franz
!!!CDT: 1797/01/31-1828/11/19
!!!SCT: D. 969
!!!OPR: 12 Valses nobles
!!!OPS: 77
!!!ONM: 1
**kern	**kern	**dynam
*part1	*part1	*part1
*staff2	*staff1	*
*clefF4	*clefG2	*
*k[]	*k[]	*
*C:	*C:	*
*M3/4	*M3/4	*
=	=	=
*>A	*>A	*>A
8CCL 8C	8cL 8cc	ff
8GGJ	8gJ	.
=	=	=
4CC 4C	4c 4cc	fz
4CC 4C	4c 4cc	.
8CCL 8C	8gL 8cc 8ee	.
8GGJ	8gJ 8b 8dd	.
=	=	=
4CC 4C	4g 4cc 4ee	fz
4CC 4C	4g 4cc 4ee	.
8CCL 8C	8ccL 8ee 8gg	.
8GGJ	8bJ 8dd 8gg	.
=	=	=
4CC 4C	4cc 4ee 4gg	.
4EE 4E	4cc 4ee 4gg	.
4CC 4D	4ee^ 4gg 4ccc	.
=	=	=
2GG 2G	2dd 2gg 2bb	.
4r	8bL 8ff 8aa	mf
.	8bJ 8ee 8gg#X	.
=	=	=
4GG	4b 4ff 4aa	.
4G 4d 4f	4b 4ff 4aa	.
4r	8bL 8dd 8ff	.
.	8bJ 8cc#X 8ee	.
=	=	=
4GG	4b 4dd 4ff	.
4G 4d 4f	4b 4dd 4ff	.
4r	8gL 8b 8dd	.
.	8gJ 8a#X 8cc#X	.
=	=	=
4GG 4G	4g 4b 4dd	.
4B 4d 4f	4g 4b 4dd	.
4G 4d 4f	4g^ 4b 4dd 4gg	.
=	=	=
2c 2e	2g 2cc 2ee	.
=:|!|:	=:|!|:	=:|!|:
*>X	*>X	*>X
*d:	*d:	*
4r	8aL 8cc#X 8ee 8aa	f
.	8aJ 8dd 8ff 8aa	.
=	=	=
4AAA 4AA	4a 4cc#X 4ee 4aa	.
4A 4e 4g	4a 4cc# 4ee 4aa	.
4r	8a^L 8ee 8gg 8aa	.
.	8aJ 8dd 8ff 8aa	.
=	=	=
4DD 4D	4a 4dd 4ff 4aa	.
4A 4d 4f	4a 4dd 4ff 4aa	.
*C:	*C:	*
4r	8gL 8b 8dd 8gg	.
.	8gJ 8cc 8ee 8gg	.
=	=	=
4GGG 4GG	4g 4b 4dd 4gg	.
4G 4d 4f	4g 4b 4dd 4gg	.
4r	8g^L 8dd 8ff 8gg	.
.	8gJ 8cc 8ee 8gg	.
=	=	=
4CC 4C	4g 4cc 4ee 4gg	.
4G 4c 4e	4g 4cc 4ee 4gg	.
*>A	*>A	*>A
8CCL 8C	8ccL 8ccc	ff
8GGJ	8ggJ	.
=	=	=
4CC 4C	4cc 4ccc	.
4CC 4C	4cc 4ccc	.
8AAAL 8AA	8eeL 8aa 8ccc 8eee	fz
8EEJ	8eeJ 8gg#X 8bb 8eee	.
=	=	=
4AAA 4AA	4ee 4aa 4eee	.
4AAA 4AA	4ee 4aa 4ccc 4eee	.
8GGL 8C 8E	8eeL 8eee	.
8GGJ 8D 8F	8ffJ 8fff	.
=	=	=
*	*8va	*
4GG 4E 4G	4gg 4ggg	.
4GG 4E 4G	4gg 4ggg	.
4GG 4D 4F	8aaL 8aaa	.
.	8bbJ 8bbb	.
=	=	=
2C 2E	2ccc 2cccc	.
*	*X8va	*
=:|!	=:|!	=:|!
*-	*-	*-
!!!system-decoration: {(s1,s2)}
!!!AGN: Walzer
!!!EED: Wolfgang Drescher
!!!END: 2025/05/06
!!!ENC: Julian Schneider
!!!EEV: 2025/05/07
!!!title: @{OPR}, @{SCT} №@{ONM}